X:65
T:RVW2/2/65 The Sprig of Thyme
C:James Punt, East Horndon, Essex, 23 April 1904
L:1/8
Q:1/4=100
M:4/4
I:linebreak $
K:G
"^(Editorial suggestion)  " G2 | B2 (BA) G2 A2 | E6 e2 | d2 (BA) (GA)(Bc) | d6 BB |$ 
w: Come|lads and _ las- ses|gay that|are just _ in _ your _|prime I would|
(cd)(ec) B2 (AG) | A2 B2 E2 cA |"^(a)_________________________" (Bc)(dD) B2 A2 | G6 ||$ G2 | 
w: have _ you _ weed your _|gar- dens clean and let|no _ one _ steal your|thyme.||
B2 BA G2 A2 | E6 e2 | d2 BA GABc | d6 BB |$ cdec B2 AG | A2 B2 E2 cA | 
w: ||||||
"^(a) var._____________________" B2 d2 (DF)(AF) | G6 |] 
w: ||



